X:1
T:Title
L:1/8
M:4/4
I:linebreak $
K:D
V:1 treble nm="Voice"
V:1
"Em" EBBG"D" FDDF |"Em" EBBF GABc |"D" d2 AG FEDF |"Em" EB"D"AF"Em" GE E2 :|"Em" gfeg Bgeg | %5
"D" fdad bdaf |"Em" gfeg Bgeg |"D" fdaf fe e2 |"Em" gfeg Bgeg |"D" fdad bdaf |"Em" gaeg deBd | %11
"D" ABFA"Em" BE E2 |] %12
